X:32
T:Lord Byron. JBu.32
O:England,South Yorkshire
S:Joshua Burnett’s MS,c1835,S.Yorkshire
M:6/8
L:1/8
Q:3/8=110
R:jig
Z:vmp.R.Greig.2011
K:G
GA|BAB Gd^c|dABG2B|d2Be2d|d2BA2B|
cBc ecA|GFE DGA|B3A3|G3-G2||
D|B,DG B,DG|GFED2B|d2Be2d|d2BA2B|
cBc ecA|GFE DGA|B3A3|G3-G2||
d|d2Bg2f|e2dc2B|Ace ecA|G3F2d|
dBc def|gfe d2c|B3A3|G3-G2|]

